<?xml version="1.0" encoding="UTF-8"?>
<map version="1.10" tiledversion="1.12.2" orientation="orthogonal" renderorder="right-down" width="12" height="6" tilewidth="16" tileheight="16" infinite="0" nextlayerid="10" nextobjectid="3">
 <editorsettings>
  <export target="Baño.json" format="json"/>
 </editorsettings>
 <tileset firstgid="1" name="PisosYParedes" tilewidth="16" tileheight="16" tilecount="224" columns="14">
  <image source="../../tiles/interior/floorswalls.png" width="224" height="256"/>
 </tileset>
 <tileset firstgid="225" name="BañoTextiles" tilewidth="16" tileheight="16" tilecount="209" columns="19">
  <image source="../../tiles/interior/textiles_BA.png" width="317" height="186"/>
 </tileset>
 <tileset firstgid="434" name="BañoPorcelana" tilewidth="16" tileheight="16" tilecount="91" columns="13">
  <image source="../../tiles/interior/fixtures_BA.png" width="208" height="112"/>
 </tileset>
 <tileset firstgid="525" name="Decoraciones" tilewidth="16" tileheight="16" tilecount="120" columns="12">
  <image source="../../tiles/interior/decorations.png" width="192" height="160"/>
 </tileset>
 <tileset firstgid="645" name="Muebles" tilewidth="16" tileheight="16" tilecount="70" columns="10">
  <image source="../../tiles/interior/cabinets_BA.png" width="160" height="112"/>
 </tileset>
 <layer id="1" name="Piso" width="12" height="6">
  <data encoding="csv">
0,0,0,0,0,0,0,0,0,0,0,0,
0,0,0,0,0,0,0,0,0,0,0,0,
0,0,0,0,0,0,0,0,0,0,0,0,
170,171,171,171,171,171,171,171,171,171,171,173,
184,185,186,185,186,185,186,185,186,185,186,187,
198,199,200,199,200,199,200,199,200,199,200,201
</data>
 </layer>
 <layer id="2" name="Pared" width="12" height="6">
  <data encoding="csv">
142,143,144,143,144,143,144,143,144,143,144,145,
156,159,159,159,159,159,159,159,159,159,159,159,
156,159,159,159,159,159,159,159,159,159,159,159,
0,0,0,0,0,0,0,0,0,0,0,0,
0,0,0,0,0,0,0,0,0,0,0,0,
0,0,0,0,0,0,0,0,0,0,0,0
</data>
 </layer>
 <layer id="5" name="Decoraciones" width="12" height="6" offsetx="0.5" offsety="-6.5">
  <data encoding="csv">
0,0,0,0,0,0,0,0,0,0,0,0,
0,2684355167,2684355155,2684355143,0,0,0,0,0,0,0,0,
0,0,0,0,0,0,0,0,0,0,0,0,
0,0,0,0,0,0,0,0,0,0,0,0,
0,291,292,293,0,0,0,308,309,310,311,0,
0,0,0,0,0,0,0,327,328,329,330,0
</data>
 </layer>
 <layer id="8" name="Mueble" width="12" height="6" offsetx="-6.5" offsety="-4">
  <data encoding="csv">
478,478,478,478,478,478,478,478,478,478,478,478,
478,478,478,478,478,478,478,478,478,478,478,478,
478,478,646,647,478,478,478,478,478,478,478,478,
478,478,656,657,478,478,478,478,478,478,478,478,
478,478,478,478,478,478,478,478,478,478,478,478,
478,478,478,478,478,478,478,478,478,478,478,478
</data>
 </layer>
 <layer id="3" name="Porcelana" width="12" height="6" offsetx="1" offsety="-4.25">
  <data encoding="csv">
0,0,0,0,0,0,0,0,0,0,0,0,
0,440,441,442,442,0,0,0,0,0,0,0,
0,453,454,455,0,457,458,0,0,0,0,0,
0,466,0,468,468,470,471,0,0,0,0,0,
0,0,0,0,0,483,484,0,0,0,0,0,
0,0,0,0,0,0,0,0,0,0,0,0
</data>
 </layer>
 <layer id="4" name="PorcelanaMove" width="12" height="6" offsetx="2.25" offsety="2.5">
  <data encoding="csv">
0,0,0,0,0,0,0,0,0,0,0,0,
0,0,0,0,0,0,0,0,0,0,0,0,
0,0,0,0,370,0,0,448,449,450,451,0,
0,0,0,0,389,0,0,461,462,463,464,0,
0,0,0,0,0,0,0,0,0,0,0,0,
0,0,0,0,0,0,0,0,0,0,0,0
</data>
 </layer>
 <layer id="6" name="Decoracion2" width="12" height="6">
  <data encoding="csv">
0,0,0,0,0,0,0,0,365,366,367,0,
0,0,0,0,0,0,0,0,384,385,386,0,
0,0,0,0,0,0,0,0,403,404,405,0,
0,0,0,0,0,0,0,0,0,0,0,0,
0,0,0,0,0,0,0,0,0,0,0,0,
0,0,0,0,0,0,0,0,0,0,0,0
</data>
 </layer>
 <objectgroup id="7" name="Spawn">
  <object id="1" name="desdePasillo" x="9.75" y="74.75">
   <point/>
  </object>
 </objectgroup>
 <objectgroup id="9" name="Transiciones">
  <object id="2" name="PuertaAlPasillo" x="0.5" y="53" width="1.25" height="42.25">
   <properties>
    <property name="goTo" value="Pasillo"/>
    <property name="prompt" value="[ F ] SALIR Al PASILLO"/>
    <property name="spawn" value="desdeBano"/>
   </properties>
  </object>
 </objectgroup>
</map>
