<?xml version="1.0" encoding="UTF-8"?>
<map version="1.10" tiledversion="1.12.2" orientation="orthogonal" renderorder="right-down" width="16" height="6" tilewidth="16" tileheight="16" infinite="0" nextlayerid="10" nextobjectid="38">
 <editorsettings>
  <export target="Pasillo.json" format="json"/>
 </editorsettings>
 <tileset firstgid="1" name="PisosYParedes" tilewidth="16" tileheight="16" tilecount="224" columns="14">
  <image source="../../tiles/interior/floorswalls.png" width="224" height="256"/>
 </tileset>
 <tileset firstgid="225" name="Puerta" tilewidth="16" tileheight="16" tilecount="736" columns="46">
  <image source="../../tiles/interior/doorswindowsstairs.png" width="736" height="256"/>
 </tileset>
 <tileset firstgid="961" name="Decoraciones" tilewidth="16" tileheight="16" tilecount="120" columns="12">
  <image source="../../tiles/interior/decorations.png" width="192" height="160"/>
 </tileset>
 <tileset firstgid="1081" name="prueba" tilewidth="48" tileheight="48" spacing="16" margin="16" tilecount="54" columns="9">
  <grid orientation="orthogonal" width="16" height="16"/>
  <image source="../../tiles/interior/livingroom.png" width="624" height="416"/>
 </tileset>
 <tileset firstgid="1135" name="DecoracionesObjetos" tilewidth="16" tileheight="48" tilecount="10" columns="5">
  <image source="../../tiles/interior/decoracionesPlantas.png" width="80" height="96"/>
 </tileset>
 <layer id="2" name="Piso" width="16" height="6">
  <data encoding="csv">
0,0,0,0,0,0,0,0,0,0,0,0,0,0,0,0,
0,0,0,0,0,0,0,0,0,0,0,0,0,0,0,0,
0,0,0,0,0,0,0,0,0,0,0,0,0,0,0,0,
80,81,82,81,82,81,82,81,82,81,82,81,82,81,82,83,
94,95,96,95,96,95,96,95,96,95,96,95,96,95,0,0,
108,109,110,109,110,109,110,109,110,109,110,109,110,109,110,111
</data>
 </layer>
 <layer id="1" name="Pared" width="16" height="6">
  <data encoding="csv">
38,39,39,39,39,39,39,39,39,39,39,39,39,39,39,41,
52,53,53,53,53,53,53,53,53,53,53,53,53,53,53,55,
66,68,68,68,68,68,68,68,68,68,68,68,68,68,68,69,
0,0,0,0,0,0,0,0,0,0,0,0,0,0,0,0,
0,0,0,0,0,0,0,0,0,0,0,0,0,0,0,0,
0,0,0,0,0,0,0,0,0,0,0,0,0,0,0,0
</data>
 </layer>
 <layer id="3" name="Puerta" width="16" height="6" offsetx="0" offsety="5.33333">
  <data encoding="csv">
0,0,0,278,279,0,1016,1017,0,281,282,0,0,0,0,0,
0,0,0,324,325,0,0,0,0,327,328,0,0,0,0,0,
0,0,0,370,371,0,0,0,0,373,374,0,0,0,0,0,
0,0,0,0,0,0,0,0,0,419,420,0,0,1610613009,1610613055,1610613101,
0,0,0,0,0,0,0,0,0,0,0,0,0,1610613008,1610613054,1610613100,
0,0,0,0,0,0,0,0,0,0,0,0,0,0,0,0
</data>
 </layer>
 <objectgroup id="8" name="Muebles">
  <object id="29" gid="1140" x="0" y="95.3333" width="16" height="48"/>
  <object id="30" gid="1135" x="4" y="62" width="16" height="48"/>
  <object id="33" gid="1144" x="192.667" y="61.3333" width="16" height="48"/>
  <object id="34" gid="1135" x="239.667" y="94" width="16" height="48"/>
 </objectgroup>
 <objectgroup id="9" name="Interactivos"/>
 <objectgroup id="5" name="Colisiones">
  <object id="1" x="0.333333" y="0.333333" width="256" height="50"/>
  <object id="3" x="239" y="83.3334" width="18" height="12.6666"/>
  <object id="11" x="209" y="56" width="47.75" height="27.25"/>
  <object id="28" x="2.94121" y="89.6666" width="9.05883" height="4.99997"/>
  <object id="35" x="196.137" y="54.8333" width="9.05883" height="4.99997"/>
  <object id="37" x="6.80392" y="54.8333" width="11.3922" height="4.99997"/>
 </objectgroup>
 <objectgroup id="7" name="Transiciones">
  <object id="6" name="PuertaAlBaño" x="146" y="5.66667" width="27.6667" height="48">
   <properties>
    <property name="goTo" value="Baño"/>
    <property name="prompt" value="[ F ] ENTRAR AL BAÑO"/>
    <property name="spawn" value="desdePasillo"/>
   </properties>
  </object>
  <object id="7" name="PuertaAOficina" x="49" y="6.33333" width="28.6667" height="46.6667">
   <properties>
    <property name="goTo" value="Oficina"/>
    <property name="prompt" value="[ F ] ENTRAR A LA OFICINA"/>
    <property name="spawn" value="desdePasillo"/>
   </properties>
  </object>
  <object id="8" name="Escalera" x="208.333" y="55.3333" width="48.3333" height="28.3333">
   <properties>
    <property name="goTo" value="Living-Cocina"/>
    <property name="prompt" value="[ F ] BAJAR AL LIVING"/>
    <property name="spawn" value="desdePasillo"/>
   </properties>
  </object>
 </objectgroup>
 <objectgroup id="6" name="Spawn">
  <object id="22" name="desdeBaño" x="175" y="37.6667">
   <point/>
  </object>
  <object id="23" name="desdeOficina" x="78.6667" y="38">
   <point/>
  </object>
  <object id="25" name="desdeLiving" x="201.667" y="54.6667">
   <point/>
  </object>
 </objectgroup>
</map>
