<?xml version="1.0" encoding="UTF-8"?>
<map version="1.10" tiledversion="1.12.2" orientation="orthogonal" renderorder="right-down" width="16" height="10" tilewidth="16" tileheight="16" infinite="0" nextlayerid="15" nextobjectid="89">
 <editorsettings>
  <export target="Oficina.json" format="json"/>
 </editorsettings>
 <tileset firstgid="1" name="PisosYParedes" tilewidth="16" tileheight="16" tilecount="224" columns="14">
  <image source="../../tiles/interior/floorswalls.png" width="224" height="256"/>
 </tileset>
 <tileset firstgid="225" name="Puerta" tilewidth="16" tileheight="16" tilecount="736" columns="46">
  <image source="../../tiles/interior/doorswindowsstairs.png" width="736" height="256"/>
 </tileset>
 <tileset firstgid="961" name="Librerias" tilewidth="16" tileheight="16" tilecount="1175" columns="47">
  <image source="../../tiles/interior/librerias.png" width="752" height="405"/>
 </tileset>
 <tileset firstgid="2136" name="Living" tilewidth="16" tileheight="16" tilecount="1014" columns="39">
  <image source="../../tiles/interior/livingroom.png" width="624" height="416"/>
 </tileset>
 <tileset firstgid="3150" name="Decoraciones" tilewidth="16" tileheight="16" tilecount="120" columns="12">
  <image source="../../tiles/interior/decorations.png" width="192" height="160"/>
 </tileset>
 <tileset firstgid="3270" name="LibreriasObj" tilewidth="48" tileheight="48" spacing="16" tilecount="42" columns="7">
  <image source="../../tiles/interior/libreriasObj.png" width="434" height="368"/>
 </tileset>
 <tileset firstgid="3312" name="DecoracionesObjetos" tilewidth="16" tileheight="48" tilecount="10" columns="5">
  <image source="../../tiles/interior/decoracionesPlantas.png" width="80" height="96"/>
 </tileset>
 <tileset firstgid="3322" name="sillaVieja" tilewidth="20" tileheight="34" tilecount="1" columns="1">
  <grid orientation="orthogonal" width="16" height="32"/>
  <image source="../../tiles/interior/sillaVieja.png" width="20" height="34"/>
 </tileset>
 <layer id="1" name="Piso" width="16" height="10">
  <data encoding="csv">
0,0,0,0,0,0,0,0,0,0,0,0,0,0,0,0,
0,0,0,0,0,0,0,0,0,0,0,0,0,0,0,0,
0,0,0,0,0,0,0,0,0,0,0,0,0,0,0,0,
80,81,81,81,81,81,81,81,81,81,81,81,81,81,81,83,
94,95,95,95,95,95,95,95,95,95,95,95,95,95,95,97,
94,95,95,95,95,95,95,95,95,95,95,95,95,95,95,97,
94,95,95,95,95,95,95,95,95,95,95,95,95,95,95,97,
94,95,95,95,95,95,95,95,95,95,95,95,95,95,95,97,
94,95,95,95,95,95,95,95,95,95,95,95,95,95,95,97,
94,95,95,95,95,95,95,95,95,95,95,95,95,95,95,97
</data>
 </layer>
 <layer id="2" name="Pared" width="16" height="10">
  <data encoding="csv">
38,39,39,39,39,39,39,39,39,39,39,39,39,39,39,41,
52,53,53,53,53,53,53,53,53,53,53,53,53,53,53,55,
66,67,67,67,67,67,67,67,67,67,67,67,67,67,67,69,
0,0,0,0,0,0,0,0,0,0,0,0,0,0,0,0,
0,0,0,0,0,0,0,0,0,0,0,0,0,0,0,0,
0,0,0,0,0,0,0,0,0,0,0,0,0,0,2343,2344,
0,0,0,0,0,0,0,0,0,0,0,0,0,0,2382,2383,
0,0,0,0,0,0,0,0,0,0,0,0,0,0,2421,2422,
0,0,0,0,0,0,0,0,0,0,0,0,0,0,0,0,
0,0,0,0,0,0,0,0,0,0,0,0,0,0,0,0
</data>
 </layer>
 <layer id="3" name="Puerta" width="16" height="10" offsetx="0" offsety="5.12">
  <data encoding="csv">
0,0,0,0,0,0,0,0,0,0,0,0,281,282,0,0,
0,0,0,0,0,0,0,0,0,0,0,0,327,328,0,0,
0,0,0,0,0,0,0,0,0,0,0,0,373,374,0,0,
0,0,0,0,0,0,0,0,0,0,0,0,419,420,0,0,
0,0,0,0,0,0,0,0,0,0,0,0,0,0,0,0,
0,0,0,0,0,0,0,0,0,0,0,0,0,0,0,0,
0,0,0,0,0,0,0,0,0,0,0,0,0,0,0,0,
0,0,0,0,0,0,0,0,0,0,0,0,0,0,0,0,
0,0,0,0,0,0,0,0,0,0,0,0,0,0,0,0,
0,0,0,0,0,0,0,0,0,0,0,0,0,0,0,0
</data>
 </layer>
 <layer id="4" name="Muebles" width="16" height="10">
  <data encoding="csv">
0,0,0,0,0,0,0,0,0,0,0,0,0,0,0,0,
0,0,0,0,0,0,0,0,0,0,0,0,0,0,0,0,
0,0,0,0,0,0,0,0,0,0,0,0,0,0,0,0,
0,0,0,0,0,0,0,0,0,0,0,0,0,0,0,0,
0,0,0,0,0,0,0,0,0,0,0,0,0,0,0,0,
0,0,0,0,2509,2510,0,0,0,0,0,0,2595,2596,0,0,
0,0,0,0,2548,2549,0,0,0,0,0,0,2634,2635,0,0,
0,0,0,0,2587,2588,0,0,0,0,0,0,0,0,0,0,
0,0,0,0,0,0,0,0,0,0,0,0,0,0,0,0,
0,0,0,0,0,0,0,0,0,0,0,0,0,0,0,0
</data>
 </layer>
 <objectgroup id="12" name="Muebles">
  <object id="49" gid="3270" x="16" y="64" width="48" height="48"/>
  <object id="50" gid="3271" x="64" y="64" width="48" height="48"/>
  <object id="51" gid="3275" x="112" y="64" width="48" height="48"/>
  <object id="53" gid="3279" x="208" y="160" width="48" height="48"/>
  <object id="54" gid="3281" x="160" y="160" width="48" height="48"/>
  <object id="55" gid="3272" x="0" y="144" width="48" height="48"/>
  <object id="56" gid="3272" x="0" y="96" width="48" height="48"/>
  <object id="58" gid="3312" x="240" y="64" width="16" height="48"/>
  <object id="59" gid="3312" x="0" y="160" width="16" height="48"/>
  <object id="60" gid="3317" x="144" y="160" width="16" height="48"/>
  <object id="61" gid="3321" x="160" y="64" width="16" height="48"/>
  <object id="81" gid="3322" x="47.3333" y="113.667" width="20" height="34"/>
 </objectgroup>
 <objectgroup id="6" name="Colisiones">
  <object id="1" x="0.808421" y="0.538947" width="256" height="51.4695"/>
  <object id="20" x="241.973" y="56.8168" width="12.8351" height="3.38173"/>
  <object id="21" x="15.0905" y="52.5474" width="157.4" height="10.1762"/>
  <object id="22" x="0.269474" y="125.994" width="13.6295" height="27.945"/>
  <object id="26" x="66.7375" y="81.9699" width="26.3088" height="44.8884"/>
  <object id="27" x="147.105" y="154.065" width="10.6933" height="5.46351"/>
  <object id="29" x="159.528" y="147.909" width="95.9326" height="12.1579"/>
  <object id="32" x="201.027" y="90.132" width="14.5516" height="14.1544"/>
  <object id="34" x="224.472" y="80.5726" width="30.1811" height="45.6701"/>
  <object id="57" x="0.666667" y="80.3333" width="14" height="16.3333"/>
 </objectgroup>
 <objectgroup id="8" name="Transiciones">
  <object id="39" name="PuertaAlPasillo" x="192.404" y="5.92842" width="30.9895" height="50.3916">
   <properties>
    <property name="goTo" value="Pasillo"/>
    <property name="prompt" value="[ F ] SALIR AL PASILLO"/>
    <property name="spawn" value="desdeOficina"/>
   </properties>
  </object>
 </objectgroup>
 <objectgroup id="9" name="Interactivos">
  <object id="41" name="Escritorio" x="70.75" y="84.5" width="9.75" height="9.75">
   <properties>
    <property name="dialogo" value="Que buena mesa che | me la llevo pa casa"/>
    <property name="interactionId" value="escritorio_oficina"/>
    <property name="prompt" value="Inspeccionar"/>
    <property name="tipo" value="inspeccionar"/>
   </properties>
  </object>
  <object id="42" name="Libro" x="33.5" y="31.25" width="2" height="6.75">
   <properties>
    <property name="dialogo" value="Un libro muy pesado | Un momento... | ...una nota entre las páginas |Parece importante."/>
    <property name="effects_clues" value="libro_oficina"/>
    <property name="effects_flags" value="puerta_abierta"/>
    <property name="interactionId" value="libro_oficina"/>
    <property name="prompt" value="Tomar libro"/>
    <property name="tipo" value="recoger"/>
   </properties>
  </object>
  <object id="43" name="Caja fuerte" x="89.25" y="49" width="10.25" height="6.75">
   <properties>
    <property name="dialogo" value="La nota tiene algo que ver con esta caja fuerte"/>
    <property name="dialogoLocked" value="No sé cómo abrirla."/>
    <property name="effects_flags" value="caja_fuerte_abierta"/>
    <property name="interactionId" value="caja_fuerte"/>
    <property name="requirements_clues" value="libro_oficina"/>
    <property name="tipo" value="usar"/>
   </properties>
  </object>
 </objectgroup>
 <objectgroup id="7" name="Spawn">
  <object id="48" name="desdePasillo" x="227.667" y="45">
   <point/>
  </object>
 </objectgroup>
 <layer id="14" name="Decoraciones" width="16" height="10">
  <data encoding="csv">
0,0,0,0,0,0,0,0,0,0,0,0,0,0,0,0,
0,0,0,0,0,0,0,0,0,0,0,0,0,0,0,0,
0,0,0,0,0,0,0,0,0,0,0,0,0,0,0,0,
0,0,0,0,0,0,0,0,0,0,0,0,0,0,0,0,
0,0,0,0,0,0,0,0,0,0,0,0,0,0,0,0,
0,0,0,0,3171,3172,0,0,0,0,0,0,0,0,0,0,
0,0,0,0,3183,3184,0,0,0,0,0,0,0,0,0,0,
0,0,0,0,0,0,0,0,0,0,0,0,0,0,0,0,
0,0,0,0,0,0,0,0,0,0,0,0,0,0,0,0,
0,0,0,0,0,0,0,0,0,0,0,0,0,0,0,0
</data>
 </layer>
</map>
