<?xml version="1.0" encoding="UTF-8"?>
<map version="1.10" tiledversion="1.12.2" orientation="orthogonal" renderorder="right-down" width="35" height="10" tilewidth="16" tileheight="16" infinite="0" nextlayerid="9" nextobjectid="30">
 <editorsettings>
  <export target="living-cocina.json" format="json"/>
 </editorsettings>
 <tileset firstgid="1" name="PisosYParedes" tilewidth="16" tileheight="16" tilecount="224" columns="14">
  <image source="../../tiles/interior/floorswalls.png" width="224" height="256"/>
 </tileset>
 <tileset firstgid="225" name="Living" tilewidth="16" tileheight="16" tilecount="1014" columns="39">
  <image source="../../tiles/interior/livingroom.png" width="624" height="416"/>
 </tileset>
 <tileset firstgid="1239" name="Librerias" tilewidth="16" tileheight="16" tilecount="1175" columns="47">
  <image source="../../tiles/interior/librerias.png" width="752" height="405"/>
 </tileset>
 <tileset firstgid="2414" name="Decoraciones" tilewidth="16" tileheight="16" tilecount="120" columns="12">
  <image source="../../tiles/interior/decorations.png" width="192" height="160"/>
 </tileset>
 <tileset firstgid="2534" name="Puerta" tilewidth="16" tileheight="16" tilecount="736" columns="46">
  <image source="../../tiles/interior/doorswindowsstairs.png" width="736" height="256"/>
 </tileset>
 <tileset firstgid="3270" name="Cocina" tilewidth="16" tileheight="16" tilecount="650" columns="26">
  <image source="../../tiles/interior/kitchen.png" width="416" height="400"/>
 </tileset>
 <layer id="1" name="Piso" width="35" height="10">
  <data encoding="csv">
0,0,0,0,0,0,0,0,0,0,0,0,0,0,0,0,0,0,0,0,0,0,0,0,0,0,0,0,0,0,0,0,0,0,0,
0,0,0,0,0,0,0,0,0,0,0,0,0,0,0,0,0,0,0,0,0,0,0,0,0,0,0,0,0,0,0,0,0,0,0,
0,0,0,0,0,0,0,0,0,0,0,0,0,0,0,0,0,0,0,0,0,0,0,0,0,0,0,0,0,0,0,0,0,0,0,
0,0,0,0,0,0,0,0,0,0,0,0,0,0,0,0,0,0,0,0,0,0,0,0,0,0,0,0,0,0,0,0,0,0,0,
72,73,74,73,74,73,74,73,74,73,74,73,74,73,74,73,74,73,75,178,179,180,179,180,179,180,179,180,179,179,180,179,180,179,181,
86,87,88,87,88,87,88,87,88,87,88,87,88,87,88,87,88,87,89,192,193,194,193,194,193,194,193,194,193,193,194,193,194,193,195,
86,87,88,87,88,87,88,87,88,87,88,87,88,87,88,87,88,87,89,192,193,194,193,194,193,194,193,194,193,193,194,193,194,193,195,
86,87,88,87,88,87,88,87,88,87,88,87,88,87,88,87,88,87,89,192,193,194,193,194,193,194,193,194,193,193,194,193,194,193,195,
86,87,88,87,88,87,88,87,88,87,88,87,88,87,88,87,88,87,89,192,193,194,193,194,193,194,193,194,193,193,194,193,194,193,195,
100,101,102,101,102,101,102,101,102,101,102,101,102,101,102,101,102,101,103,206,207,208,207,208,207,208,207,208,207,207,208,207,208,207,209
</data>
 </layer>
 <layer id="3" name="Pared" width="35" height="10">
  <data encoding="csv">
16,17,18,17,18,17,18,17,18,17,18,17,18,17,18,17,18,17,19,150,151,151,151,151,151,151,151,151,151,151,151,151,151,151,153,
30,31,32,31,32,31,32,31,32,31,32,31,32,31,32,31,32,31,33,165,165,165,165,165,165,165,165,165,165,165,165,165,165,165,167,
44,45,46,45,46,45,46,45,46,45,46,45,46,45,46,45,46,45,47,165,165,165,165,165,165,165,165,165,165,165,165,165,165,165,167,
58,59,60,59,60,59,60,59,60,59,60,59,60,59,60,59,60,59,61,165,165,165,165,165,165,165,165,165,165,165,165,165,165,165,167,
0,0,0,0,850,851,852,851,852,851,852,851,853,0,0,0,0,0,0,0,0,0,0,0,0,0,0,0,0,0,0,0,0,0,0,
0,0,0,0,889,890,891,890,891,890,891,890,892,0,0,0,0,0,0,0,0,0,0,0,0,0,0,0,0,0,0,0,0,0,0,
0,0,0,0,850,851,852,851,852,851,852,851,853,0,0,0,0,0,0,0,0,0,0,0,0,0,0,0,0,0,0,0,0,0,0,
0,0,0,0,889,890,891,890,891,890,891,890,892,0,0,0,0,0,0,0,0,0,0,0,0,0,0,0,0,0,0,0,0,0,0,
0,0,0,0,0,0,0,0,0,0,0,0,0,0,0,0,0,0,0,0,0,0,0,0,0,0,0,0,0,0,0,0,0,0,0,
0,0,0,0,0,0,0,0,0,0,0,0,0,0,0,0,0,0,0,0,0,0,0,0,0,0,0,0,0,0,0,0,0,0,0
</data>
 </layer>
 <layer id="6" name="Muebles2" width="35" height="10" offsetx="2.66667" offsety="-0.333333">
  <data encoding="csv">
0,0,0,0,0,0,0,0,0,0,0,0,0,0,0,0,0,0,0,0,0,0,0,0,0,0,0,0,0,0,0,0,0,0,0,
0,0,0,0,0,0,0,0,0,0,0,0,0,0,0,0,0,0,0,0,0,0,0,0,0,0,0,0,0,0,0,0,0,0,0,
0,0,0,0,0,0,0,0,0,0,0,0,0,0,0,0,0,0,0,0,0,0,0,0,0,0,0,0,0,0,0,0,0,0,0,
0,0,0,0,0,0,0,0,0,0,0,0,0,0,0,0,0,0,0,0,0,0,0,0,0,0,0,0,0,0,0,0,0,0,0,
0,0,0,0,0,0,0,0,0,0,0,0,0,0,0,0,0,0,0,0,0,0,0,0,0,0,0,0,0,0,0,0,0,0,0,
0,0,0,0,0,0,0,0,0,0,0,0,0,0,0,0,0,0,0,0,0,0,0,0,0,0,0,0,0,0,0,0,0,0,0,
0,0,0,0,0,0,0,0,0,0,0,0,0,0,0,0,0,0,0,0,0,0,0,736,0,0,0,0,0,0,0,0,0,0,0,
0,0,0,0,0,0,0,0,0,0,0,0,0,0,0,0,0,0,0,0,0,0,0,775,0,0,0,0,0,0,0,0,0,0,0,
0,0,0,0,0,0,0,0,0,0,0,0,0,0,0,0,0,0,0,0,0,0,1031,1032,1033,0,0,0,0,0,0,0,0,0,0,
0,0,0,0,0,0,0,0,0,0,0,0,0,0,0,0,0,0,0,0,0,0,1070,1071,1072,0,0,0,0,0,0,0,0,0,0
</data>
 </layer>
 <layer id="4" name="MueblesLiving" width="35" height="10">
  <data encoding="csv">
0,0,0,0,0,0,0,0,0,0,0,0,0,0,291,292,0,0,2684356689,0,0,0,0,0,0,0,0,0,0,0,0,0,0,0,0,
0,0,0,3053,3054,3055,0,1144,1145,1146,0,3053,3054,3055,291,292,2511,0,2684356689,0,0,0,0,0,0,3053,3054,3055,0,0,0,0,0,0,0,
2227,2228,2229,3099,3100,3101,0,1183,1184,1185,0,3099,3100,3101,291,292,0,0,2684356689,0,0,0,0,3578,3579,3099,3100,3101,0,0,0,0,0,0,0,
2274,2275,2276,0,0,0,1100,2124,2125,2126,1100,0,0,0,330,331,0,0,2684356689,0,0,0,0,3604,3605,3819,3820,3821,3822,3828,3829,3715,3716,3721,3722,
2321,2322,2323,0,273,274,1139,2171,2172,2173,1139,276,277,0,369,370,0,0,2684356689,0,0,0,0,3630,3631,3845,3846,3847,3848,3854,3855,3741,3742,3747,3748,
3021,3022,3023,3024,312,313,0,767,768,769,0,315,316,0,956,957,0,0,0,0,0,0,0,3656,3657,3871,3872,3873,3874,3880,3881,3767,3768,3773,3774,
3067,3068,3069,3070,351,352,0,806,807,808,0,354,355,0,995,996,0,0,0,0,0,0,0,0,0,0,0,0,0,0,0,0,0,3799,3800,
3113,3114,3115,3116,0,0,0,308,309,310,0,0,0,0,0,0,0,0,2684356689,2055,0,0,0,733,734,0,0,0,0,0,0,0,0,0,0,
3159,3160,3161,3162,0,0,0,347,348,349,0,0,0,0,0,0,0,0,2684356689,2102,0,0,0,772,773,0,0,0,0,0,0,0,0,0,0,
3205,3206,3207,3208,0,0,0,0,0,0,0,0,0,0,0,0,0,0,2684356689,2149,0,0,0,0,0,0,0,0,0,0,0,0,0,0,0
</data>
 </layer>
 <layer id="5" name="Decoraciones" width="35" height="10">
  <data encoding="csv">
0,0,0,0,0,0,0,0,0,0,0,0,0,0,0,0,0,0,0,0,0,0,0,0,0,0,0,0,0,0,0,0,0,0,0,
0,0,0,0,0,0,0,0,0,0,0,0,0,0,0,0,0,0,0,0,0,0,0,0,0,0,0,0,0,0,0,0,0,0,0,
0,0,0,0,0,0,0,1141,1142,1143,0,0,0,0,0,0,0,0,0,0,0,0,0,0,0,0,0,0,0,0,0,0,0,2501,0,
0,0,0,2477,0,0,0,1180,1181,1182,0,0,0,0,0,0,0,2475,0,0,2477,0,0,0,0,0,0,0,0,0,0,0,0,2513,0,
0,0,0,2489,0,0,0,0,2502,0,0,0,0,0,0,0,0,2487,0,0,2489,0,0,0,0,0,0,0,0,0,0,0,0,0,0,
0,0,0,0,0,0,0,0,2514,0,0,0,0,0,0,0,0,0,0,0,0,0,0,0,0,0,0,0,0,0,0,0,0,0,0,
0,0,0,0,0,0,0,0,0,0,0,0,0,0,0,0,0,0,0,0,0,0,0,0,0,0,0,0,0,0,0,0,0,0,0,
0,0,0,0,0,0,0,0,0,0,0,0,0,0,0,0,0,0,0,0,0,0,744,0,0,742,0,0,0,0,0,0,0,0,0,
0,0,0,0,0,0,0,0,0,0,0,0,0,0,0,0,0,0,0,0,0,0,783,0,739,781,0,0,0,0,0,0,0,0,2479,
0,0,0,0,0,0,0,0,0,0,0,0,0,0,0,0,0,0,0,0,0,0,0,0,778,0,0,0,0,0,0,0,0,0,2491
</data>
 </layer>
 <objectgroup id="8" name="Colisiones">
  <object id="3" x="0.25" y="139" width="55.5" height="20.25"/>
  <object id="5" x="65.5" y="64.5" width="29" height="47"/>
  <object id="6" x="0" y="31" width="65.3333" height="47.6667"/>
  <object id="7" x="99.6667" y="47.6667" width="9" height="32"/>
  <object id="8" x="110.667" y="47" width="49.3333" height="25.6667"/>
  <object id="10" x="163.333" y="48" width="10" height="30.6667"/>
  <object id="12" x="176.333" y="66.6667" width="30" height="44.3333"/>
  <object id="13" x="224" y="68" width="31.3333" height="10.3333"/>
  <object id="14" x="206" y="64.6667" width="87.6667" height="3"/>
  <object id="15" x="293" y="0" width="11" height="79.6667"/>
  <object id="17" x="293" y="111.333" width="11.3333" height="48.3333"/>
  <object id="20" x="305" y="64.6667" width="63.3333" height="3.66667"/>
  <object id="21" x="322" y="68.3333" width="12" height="10.3333"/>
  <object id="22" x="368.667" y="65" width="30.3333" height="32.3333"/>
  <object id="23" x="400.667" y="49" width="149.667" height="40"/>
  <object id="25" x="529.333" y="90.3333" width="21.6667" height="17.3333"/>
  <object id="26" x="552.333" y="63" width="7.33333" height="5"/>
  <object id="29" x="273" y="69" width="13.6667" height="10.3333"/>
 </objectgroup>
 <objectgroup id="2" name="Spawn">
  <object id="1" name="desdePasillo" x="70" y="135.5">
   <point/>
  </object>
 </objectgroup>
 <objectgroup id="7" name="Transiciones">
  <object id="2" name="EscaleraAlPasillo" x="0" y="139" width="56" height="19">
   <properties>
    <property name="goTo" value="Pasillo"/>
    <property name="prompt" value="[ F ] SUBIR AL PASILLO"/>
    <property name="spawn" value="desdeLiving"/>
   </properties>
  </object>
 </objectgroup>
</map>
